icons/a-b.svg

<svg viewBox="0 0 24 24" fill="currentColor" xmlns="http://www.w3.org/2000/svg">
    <path d="M5 15V17C5 18.0544 5.95 19 7 19H10V21H7C4.79086 21 3 19.2091 3 17V15H5ZM18 10L22.4 21H20.245L19.044 18H14.954L13.755 21H11.601L16 10H18ZM17 12.8852L15.753 16H18.245L17 12.8852ZM3 3H9C10.6569 3 12 4.34315 12 6C12 6.76878 11.7108 7.47002 11.2353 8.00088C11.7112 8.53084 12 9.23169 12 10C12 11.6569 10.6569 13 9 13H3V3ZM9 9H5V11H9C9.55228 11 10 10.5523 10 10C10 9.45 9.55 9 9 9ZM17 3C19.2091 3 21 4.79086 21 7V9H19V7C19 5.89543 18.1046 5 17 5H14V3H17ZM9 5H5V7H9C9.55228 7 10 6.55228 10 6C10 5.45 9.55 5 9 5Z"/>
</svg>

<svg xmlns="http://www.w3.org/2000/svg" viewBox="0 0 24 24">
    <path fill="none" d="M0 0h24v24H0z"/>
    <path d="M5 15v2c0 1.054.95 2 2 2h3v2H7a4 4 0 0 1-4-4v-2h2zm13-5l4.4 11h-2.155l-1.201-3h-4.09l-1.199 3h-2.154L16 10h2zm-1 2.885L15.753 16h2.492L17 12.885zM3 3h6a3 3 0 0 1 2.235 5A3 3 0 0 1 9 13H3V3zm6 6H5v2h4a1 1 0 0 0 0-2zm8-6a4 4 0 0 1 4 4v2h-2V7a2 2 0 0 0-2-2h-3V3h3zM9 5H5v2h4a1 1 0 1 0 0-2z"/>
</svg>
